assets/Fish/Flat/fish_flat.svg

<svg width="32" height="32" viewBox="0 0 32 32" fill="none" xmlns="http://www.w3.org/2000/svg">
<path d="M16.4063 5.86579C13.7196 5.86579 12.6138 8.38265 12.5642 10.6875H11.6562C7.71325 10.6875 4.386 13.3238 3.34101 16.93C3.24997 16.9043 3.15393 16.8906 3.05469 16.8906C2.4722 16.8906 2 17.3628 2 17.9453C2 18.4103 2.30089 18.805 2.71858 18.9453C2.30089 19.0856 2 19.4803 2 19.9453C2 20.5278 2.4722 21 3.05469 21C3.08932 21 3.12355 20.9983 3.15732 20.9951C3.92819 24.986 7.44024 28 11.6563 28H13.4398C13.476 28.965 13.9493 29.9973 15.071 29.9973H17.2755C17.3817 30.0155 17.5836 29.9508 17.5411 29.5463C17.4984 29.1401 17.31 28.3105 16.3079 28H16.3438C20.7284 28 24.3516 24.7401 24.9219 20.5117V24.688C24.9219 26.9377 29.8438 29.3129 29.8438 27.1254V22.6252C29.8438 21.42 27.8051 19.365 26.5403 19.3439C27.8051 19.3227 29.8438 17.2678 29.8438 16.0625V11.5623C29.8438 9.37484 24.9219 11.75 24.9219 13.9998V18.1758C24.4203 14.4568 21.5569 11.4869 17.8911 10.8254C21.509 10.5504 22.1007 8.05045 22.2188 6.92694C22.3188 5.97513 21.8438 5.82292 21.5938 5.86579H16.4063Z" fill="#00A6ED"/>
<path d="M11.7261 13.8039C11.9035 13.5922 12.2189 13.5644 12.4305 13.7418C15.4796 16.2969 15.6411 20.7905 12.4726 24.1405C12.2829 24.3411 11.9664 24.3499 11.7658 24.1601C11.5652 23.9704 11.5564 23.6539 11.7461 23.4533C14.5777 20.4595 14.3329 16.6406 11.7882 14.5082C11.5766 14.3309 11.5488 14.0155 11.7261 13.8039Z" fill="#0074BA"/>
<path d="M9.07812 17.5C9.07812 17.8365 8.8053 18.1094 8.46875 18.1094C8.1322 18.1094 7.85938 17.8365 7.85938 17.5C7.85938 17.1635 8.1322 16.8906 8.46875 16.8906C8.8053 16.8906 9.07812 17.1635 9.07812 17.5Z" fill="#1C1C1C"/>
</svg>

<svg xmlns="http://www.w3.org/2000/svg" width="32" height="32" fill="none"><path fill="#00A6ED" d="M16.406 5.866c-2.686 0-3.792 2.517-3.842 4.822h-.908a8.66 8.66 0 0 0-8.315 6.242 1.055 1.055 0 0 0-.622 2.015 1.055 1.055 0 0 0 .438 2.05 8.66 8.66 0 0 0 8.5 7.005h1.783c.036.965.51 1.997 1.631 1.997h2.205c.106.018.308-.046.265-.45-.043-.407-.231-1.236-1.233-1.547h.036a8.658 8.658 0 0 0 8.578-7.488v4.176c0 2.25 4.922 4.625 4.922 2.437v-4.5c0-1.205-2.039-3.26-3.304-3.281 1.265-.021 3.304-2.076 3.304-3.282v-4.5c0-2.187-4.922.188-4.922 2.438v4.176a8.663 8.663 0 0 0-7.03-7.35c3.617-.276 4.209-2.776 4.327-3.9.1-.95-.375-1.103-.625-1.06h-5.188Z"/><path fill="#0074BA" d="M11.726 13.804a.5.5 0 0 1 .704-.062c3.05 2.555 3.211 7.049.043 10.398a.5.5 0 1 1-.727-.687c2.832-2.994 2.587-6.812.042-8.945a.5.5 0 0 1-.062-.704Z"/><path fill="#1C1C1C" d="M9.078 17.5a.61.61 0 1 1-1.219 0 .61.61 0 0 1 1.22 0Z"/></svg>
